X: 18799
T: If You Go First
R: reel
M: 4/4
K: Eminor
G~A3 GABA-|ABGE DEGE|G~A3 GABd-|dBed BAAG|
Az~A2 GABA-|ABGE DEGE|G~A3 GABd-|dBed BAAG|
g~e3 degg-|gega ~b2ag|abag egag-|gedB BA B/c/d|
g~e3 degg-|gega abag|abag egag-|gedB BAAG|

